icon-svg/openwrt-logo.svg

<?xml version="1.0" encoding="UTF-8" standalone="no"?>
<svg
   id="Livello_1"
   data-name="Livello 1"
   viewBox="0 0 24 24"
   version="1.1"
   width="24"
   height="24"
   xmlns="http://www.w3.org/2000/svg"
   xmlns:svg="http://www.w3.org/2000/svg">
  <path id="Colore_riempimento_1" fill="#44739e" data-name="Colore riempimento 1" class="cls-1"
     d="M 23.81439,3.23438 V 2.95508 H 23.76752 L 23.72064,2.58594 H 23.67572 V 2.44531 H 23.62891 L 23.582,2.21484 H 23.53708 L 23.4902,2.0293 H 23.44333 V 1.93555 L 23.35153,1.89062 23.30466,1.70508 23.21286,1.6582 V 1.56641 L 23.02731,1.42578 V 1.334 L 22.93356,1.28713 22.65625,0.96289 h -0.0918 L 22.42578,0.77734 H 22.332 L 22.28711,0.68555 22.10156,0.63867 22.05469,0.54688 h -0.0918 V 0.5 L 21.77734,0.45312 V 0.40625 L 21.54492,0.36133 V 0.31445 H 21.40625 V 0.26758 L 21.03516,0.2207 V 0.17578 H 20.80469 V 0.12891 H 3.209 C 3.09359,0.23157 2.91231,0.16705 2.74611,0.22266 V 0.26758 L 2.46875,0.31445 V 0.36133 H 2.375 V 0.40625 H 2.23633 V 0.45312 L 2.05078,0.5 V 0.54688 H 1.959 L 1.91211,0.63867 1.72656,0.68555 1.63477,0.82422 H 1.541 L 1.4492,0.96289 H 1.3574 L 1.31053,1.05664 0.98633,1.334 V 1.4258 L 0.84766,1.51955 v 0.0918 L 0.709,1.70508 0.66213,1.89062 0.57033,1.93555 V 2.0293 H 0.52344 L 0.47656,2.21484 H 0.42969 V 2.35352 H 0.38477 V 2.44531 H 0.33789 V 2.58594 H 0.291 V 2.72461 H 0.24609 V 2.95508 H 0.19922 V 3.1875 H 0.15234 v 17.60938 h 0.04688 l 0.04687,0.46289 H 0.291 l 0.04687,0.27929 h 0.0469 l 0.04492,0.23047 h 0.04687 l 0.04688,0.18555 h 0.04687 v 0.09375 l 0.0918,0.04492 0.04689,0.18555 0.13868,0.09375 v 0.09179 l 0.13867,0.09375 v 0.0918 l 0.09179,0.04688 0.23243,0.27734 h 0.09179 l 0.13868,0.18555 0.14062,0.04687 0.04492,0.0918 0.18555,0.04687 0.04687,0.09375 h 0.0918 v 0.04493 l 0.18555,0.04687 v 0.04687 L 2.46877,23.625 v 0.04492 h 0.13867 v 0.04688 l 0.36914,0.04687 v 0.04492 H 3.209 v 0.04688 h 15.6504 a 8.78781,8.78781 0 0 0 1.89843,-0.04688 h 0.27735 v -0.04492 l 0.37109,-0.04687 v -0.04688 h 0.13867 v -0.04687 l 0.23242,-0.04493 v -0.04687 l 0.18555,-0.04687 v -0.04493 h 0.0918 l 0.04687,-0.09375 0.18555,-0.04687 0.04492,-0.0918 0.13867,-0.04687 0.09375,-0.13868 h 0.0918 l 0.04687,-0.09179 0.32422,-0.2793 v -0.0918 l 0.13868,-0.09375 v -0.09179 l 0.13867,-0.09375 0.04687,-0.1836 0.0918,-0.04687 v -0.09375 h 0.04687 l 0.04688,-0.18555 H 23.582 l 0.04688,-0.23047 h 0.04681 v -0.13867 h 0.04492 l 0.04688,-0.37109 h 0.04687 V 20.752 h 0.04688 V 3.23438 Z M 16.92584,18.97559 A 6.88834,6.88834 0 0 1 6.85394,19.09851 7.60407,7.60407 0 0 1 6.21894,9.2038 c 0.41352,0.40875 0.8288,0.81921 1.24121,1.22693 a 5.83913,5.83913 0 0 0 1.01624,7.74548 5.17665,5.17665 0 0 0 6.76495,-0.0556 5.8324,5.8324 0 0 0 0.94446,-7.69989 c 0.41553,-0.39417 0.83856,-0.79554 1.25885,-1.19422 a 7.59471,7.59471 0 0 1 -0.51881,9.74909 z m -6.694,-6.90992 q -0.58,-0.65487 -1.16345,-1.31359 a 3.83315,3.83315 0 0 1 5.58075,0.06835 c -0.4093,0.40247 -0.81915,0.80549 -1.24451,1.2237 a 2.25769,2.25769 0 0 0 -3.17276,0.02154 z M 13.02,13.76593 a 1.24289,1.24289 0 0 1 -1.183,1.24554 1.27415,1.27415 0 0 1 -1.21021,-1.25933 1.23211,1.23211 0 0 1 1.20734,-1.2146 1.20629,1.20629 0 0 1 1.18587,1.22839 z M 7.995,9.72827 6.87164,8.4209 a 6.8514,6.8514 0 0 1 9.95935,0.059 C 16.42859,8.8881 16.02612,9.29643 15.62756,9.70072 13.11359,7.58344 10.57263,7.582 7.995,9.72827 Z M 17.81055,7.42114 A 8.275,8.275 0 0 0 5.80109,7.47583 C 5.39581,7.01324 5.01678,6.58063 4.63684,6.14691 a 9.87477,9.87477 0 0 1 14.4,0.01331 C 18.6377,6.57062 18.23859,6.981 17.81055,7.42114 Z" />
</svg>

<svg xmlns="http://www.w3.org/2000/svg" data-name="Livello 1" viewBox="0 0 24 24"><path fill="#44739e" d="M23.8144 3.2344V2.955h-.0469l-.0469-.3692h-.0449v-.1406h-.0468l-.0469-.2305h-.045l-.0468-.1855h-.0469v-.0937l-.0918-.045-.0468-.1855-.0918-.0469v-.0918l-.1856-.1406V1.334l-.0937-.0469-.2773-.3242h-.0919l-.1386-.1856h-.0938l-.0449-.0917-.1855-.047-.047-.0917h-.0917V.5l-.1856-.0469V.4063l-.2324-.045V.3145h-.1386v-.047l-.3711-.0468v-.045h-.2305V.129H3.209c-.1154.1027-.2967.0382-.4629.0938v.0449l-.2774.0469v.0468H2.375v.045h-.1387V.453L2.0508.5v.0469H1.959l-.0469.0918-.1855.0468-.0918.1387H1.541L1.4492.963h-.0918l-.0469.0937-.3242.2774v.0918l-.1386.0938v.0917l-.1387.0938-.0469.1855-.0918.045v.0937H.5234l-.0468.1855h-.047v.1387H.3849v.0918h-.047v.1406H.291v.1387H.246v.2305H.1993v.2324h-.047V20.797h.047l.0468.4629H.291l.0469.2793h.0469l.0449.2304h.0469l.0468.1856h.047v.0937l.0917.045.0469.1855.1387.0938v.0917l.1386.0938v.0918l.0918.0469.2325.2773h.0918l.1386.1856.1407.0468.0449.0918.1855.0469.0469.0937h.0918v.045l.1855.0468v.047l.2325.0468v.045h.1386v.0468l.3692.0469v.0449h.2324v.0469h15.6504a8.8 8.8 0 0 0 1.8984-.047h.2774v-.0448l.371-.0469V23.67h.1387v-.0468l.2325-.045v-.0468l.1855-.047v-.0448h.0918l.0469-.0938.1855-.0469.045-.0918.1386-.0468.0938-.1387h.0918l.0468-.0918.3243-.2793v-.0918l.1386-.0938v-.0917l.1387-.0938.0469-.1836.0918-.0469v-.0937h.0468l.047-.1856h.0448l.0469-.2304h.0468v-.1387h.045l.0468-.3711h.0469v-.2773h.0468V3.2344Zm-6.8886 15.7412a6.8883 6.8883 0 0 1-10.0719.123 7.604 7.604 0 0 1-.635-9.8948l1.2413 1.227a5.839 5.839 0 0 0 1.0162 7.7454 5.177 5.177 0 0 0 6.765-.0556 5.8324 5.8324 0 0 0 .9444-7.6999l1.2589-1.1942a7.595 7.595 0 0 1-.5189 9.749m-6.694-6.91L9.0684 10.752a3.833 3.833 0 0 1 5.5807.0683l-1.2445 1.2237a2.2577 2.2577 0 0 0-3.1727.0216zM13.02 13.766a1.243 1.243 0 0 1-1.183 1.2456 1.274 1.274 0 0 1-1.2102-1.2594 1.232 1.232 0 0 1 1.2073-1.2146A1.2063 1.2063 0 0 1 13.02 13.766M7.995 9.7283 6.8716 8.4209a6.8514 6.8514 0 0 1 9.9594.059l-1.2034 1.2208c-2.514-2.1173-5.055-2.1187-7.6326.0276m9.8155-2.3072a8.275 8.275 0 0 0-12.0094.0547L4.6368 6.147a9.875 9.875 0 0 1 14.4.0133z" class="cls-1" data-name="Colore riempimento 1"/></svg>
